images/wl-icons/document-color.svg

<svg xmlns="http://www.w3.org/2000/svg" xmlns:xlink="http://www.w3.org/1999/xlink" id="document-color-Capa_1" xml:space="preserve" height="41" viewBox="0 0 31.861 40.536" width="32" version="1.1" y="0px" x="0px" enable-background="new 0 0 31.861 40.536"><path d="m19.866 1.424h-18.451v37.688h29.032v-26.705l-10.581-10.983zm0.497 4.917l4.98 5.173h-4.98v-5.173zm-15.893 29.718v-31.579h13.601v9.324h9.321v22.256l-22.922-0.001z" fill="#618E96"/></svg>

<?xml version="1.0" encoding="utf-8"?>
<!DOCTYPE svg PUBLIC "-//W3C//DTD SVG 1.1//EN" "http://www.w3.org/Graphics/SVG/1.1/DTD/svg11.dtd"><svg xmlns="http://www.w3.org/2000/svg" xmlns:xlink="http://www.w3.org/1999/xlink" viewBox="0 0 31.861 40.536" height="40.536px" xml:space="preserve" x="0px" y="0px" id="Capa_1" width="31.861px" version="1.1" enable-background="new 0 0 31.861 40.536">
  <path fill="#618E96" d="M19.866,1.424H1.415v37.688h29.032V12.407L19.866,1.424z M20.363,6.341l4.98,5.173h-4.98V6.341z   M4.47,36.059V4.48h13.601v9.324h9.321V36.06L4.47,36.059L4.47,36.059z" />
</svg>
